src/assets/filled/DirectSend.svg

<svg width="24" height="24" viewBox="0 0 24 24"  xmlns="http://www.w3.org/2000/svg">
<path d="M21.3 12.23H17.82C16.84 12.23 15.97 12.77 15.53 13.65L14.69 15.31C14.49 15.71 14.09 15.96 13.65 15.96H10.37C10.06 15.96 9.62 15.89 9.33 15.31L8.49 13.66C8.05 12.79 7.17 12.24 6.2 12.24H2.7C2.31 12.24 2 12.55 2 12.94V16.2C2 19.83 4.18 22 7.82 22H16.2C19.63 22 21.74 20.12 22 16.78V12.93C22 12.55 21.69 12.23 21.3 12.23Z" />
<path d="M12.75 3.81023L13.47 4.53023C13.62 4.68023 13.81 4.75023 14 4.75023C14.19 4.75023 14.38 4.68023 14.53 4.53023C14.82 4.24023 14.82 3.76023 14.53 3.47023L12.53 1.47023C12.52 1.46023 12.51 1.46023 12.51 1.45023C12.45 1.39023 12.37 1.34023 12.29 1.30023C12.28 1.30023 12.28 1.30023 12.27 1.29023C12.19 1.26023 12.11 1.25023 12.03 1.24023C12 1.24023 11.98 1.24023 11.95 1.24023C11.89 1.24023 11.83 1.26023 11.77 1.28023C11.74 1.29023 11.72 1.30023 11.7 1.31023C11.62 1.35023 11.54 1.39023 11.48 1.46023L9.47995 3.46023C9.18995 3.75023 9.18995 4.23023 9.47995 4.52023C9.76995 4.81023 10.25 4.81023 10.54 4.52023L11.26 3.80023V5.00023H12.76V3.81023H12.75Z" />
<path d="M22 10.81V10.85C21.78 10.77 21.54 10.73 21.3 10.73H17.82C16.27 10.73 14.88 11.59 14.19 12.97L13.44 14.45H10.58L9.83 12.98C9.14 11.59 7.75 10.73 6.2 10.73H2.7C2.46 10.73 2.22 10.77 2 10.85V10.81C2 7.17 4.17 5 7.81 5H11.25V9C11.25 9.41 11.59 9.75 12 9.75C12.41 9.75 12.75 9.41 12.75 9V5H16.19C19.83 5 22 7.17 22 10.81Z" />
</svg>

<?xml version="1.0" encoding="UTF-8"?>
<svg width="24" height="24" viewBox="0 0 24 24" xmlns="http://www.w3.org/2000/svg">
 <path d="m21.3 12.23h-3.48c-0.98 0-1.85 0.54-2.29 1.42l-0.84 1.66c-0.2 0.4-0.6 0.65-1.04 0.65h-3.28c-0.31 0-0.75-0.07-1.04-0.65l-0.84-1.65c-0.44-0.87-1.32-1.42-2.29-1.42h-3.5c-0.39 0-0.7 0.31-0.7 0.7v3.26c0 3.63 2.18 5.8 5.82 5.8h8.38c3.43 0 5.54-1.88 5.8-5.22v-3.85c0-0.38-0.31-0.7-0.7-0.7z"/>
 <path d="m12.75 3.8102 0.72 0.72c0.15 0.15 0.34 0.22 0.53 0.22s0.38-0.07 0.53-0.22c0.29-0.29 0.29-0.77 0-1.06l-2-2c-0.01-0.01-0.02-0.01-0.02-0.02-0.06-0.06-0.14-0.11-0.22-0.15-0.01 0-0.01 0-0.02-0.01-0.08-0.03-0.16-0.04-0.24-0.05h-0.08c-0.06 0-0.12 0.02-0.18 0.04-0.03 0.01-0.05 0.02-0.07 0.03-0.08 0.04-0.16 0.08-0.22 0.15l-2 2c-0.29 0.29-0.29 0.77 0 1.06s0.77005 0.29 1.06 0l0.72-0.72v1.2h1.5v-1.19h-0.01z"/>
 <path d="m22 10.81v0.04c-0.22-0.08-0.46-0.12-0.7-0.12h-3.48c-1.55 0-2.94 0.86-3.63 2.24l-0.75 1.48h-2.86l-0.75-1.47c-0.69-1.39-2.08-2.25-3.63-2.25h-3.5c-0.24 0-0.48 0.04-0.7 0.12v-0.04c0-3.64 2.17-5.81 5.81-5.81h3.44v4c0 0.41 0.34 0.75 0.75 0.75s0.75-0.34 0.75-0.75v-4h3.44c3.64 0 5.81 2.17 5.81 5.81z"/>
</svg>
